X:1
T:Title
%%score { ( 1 3 ) | ( 2 4 ) }
L:1/8
M:4/4
K:A
V:1 treble nm="Grand Piano"
V:3 treble 
V:2 bass 
V:4 bass 
V:1
 z4 z2[Q:1/4=100] [A,C][B,D] | [CE]2 [CE]>[DF] [CE]2 [EA]>B | c6 c2 | B2 B>A G2 c>B | %4
 [CA]6 [A,C][B,D] | [CE]2 [CE]>[DF] [CE]2 [EA]>B | c6 c2 | B2 B>A G2 c>B |[M:3/4] [A,CA]6 | %9
[M:1/4] c>d |[M:4/4] e6 z2 | d6 z2 | A2 A>A A2 G>A | [GB]6 z2 | c6 z2 |[M:9/8] .F6 z3 | %16
[M:4/4] E2 A>A G2 c>B |[M:3/4] [CA]6 |] %18
V:2
 z4 z2 [A,,E,]2 | [A,,A,]2 [A,,A,]>[A,,A,] [A,,A,]2 [C,A,]>[E,G,E] | [A,E]6 [A,E]2 | %3
 [E,G,E]2 [E,G,E]>[E,CE] [E,B,E]2 [E,A,E]>[E,G,D] | [A,,A,]6 [A,,E,]2 | %5
 [A,,A,]2 [A,,A,]>[A,,A,] [A,,A,]2 [C,A,]>[E,G,E] | [A,E]6 [A,E]2 | %7
 [E,G,E]2 [E,G,E]>[E,CE] [E,B,E]2 [E,A,E]>[E,G,D] |[M:3/4] A,,6 |[M:1/4][K:treble] A>B | %10
[M:4/4] c6 B>A | G6[K:bass] .A,2 | [F,CF]2 [F,CF]>[F,CF] [F,CF]2 [F,C^E]>[F,CF] | %13
 [E,E]2 E,>E, E,2 C>D | E6 z2 |[M:9/8] .D6 z3 | %16
[M:4/4] [E,A,C]2 [E,CE]>[E,CE] [E,B,E]2 [E,A,E]>[E,G,D] |[M:3/4] [A,,A,]6 |] %18
V:3
 x8 | x8 | x8 | x8 | x8 | x8 | x8 | x8 |[M:3/4] x6 |[M:1/4] x2 |[M:4/4] z2 A,>A, A,2 d>c | %11
 z2 B,>B, B,2 [Ac]B | x8 | z2 E>E E2 A>B | z2 A,>A, A,2 B>A |[M:9/8] z2 A,- A,/A,/ [FA]2- [FA] F2 | %16
[M:4/4] x8 |[M:3/4] x6 |] %18
V:4
 x8 | x8 | x8 | x8 | x8 | x8 | x8 | x8 |[M:3/4] x6 |[M:1/4][K:treble] x2 |[M:4/4] x8 | %11
 z2[K:bass] E,>E, E,2 E,-[E,DG] | x8 | x8 | z2 E,>C, A,,2 D>C | %15
[M:9/8] z2 D,- D,/D,/ [D,A,]2- [D,A,] [D,A,D]2 |[M:4/4] x8 |[M:3/4] x6 |] %18

